Sources/FrostedUI/Resources/Icons.xcassets/profileCircle24.imageset/profile-circle-24.svg

<svg width="24" height="24" viewBox="0 0 24 24" fill="none" xmlns="http://www.w3.org/2000/svg" data-fui-icon="true">
  <path
    d="M12 1C18.0751 1 23 5.92487 23 12C23 15.3038 21.5413 18.2649 19.2354 20.2812C19.2234 20.2931 19.212 20.3054 19.1992 20.3164C19.1706 20.3412 19.1402 20.3641 19.1113 20.3887C19.047 20.4433 18.9826 20.4977 18.917 20.5508C18.8437 20.6102 18.7692 20.6681 18.6943 20.7256C18.6393 20.7679 18.5842 20.8103 18.5283 20.8516C18.4486 20.9105 18.3675 20.9676 18.2861 21.0244C18.2234 21.0682 18.1604 21.1118 18.0967 21.1543C18.019 21.2061 17.9404 21.2567 17.8613 21.3066C17.8031 21.3434 17.7455 21.3813 17.6865 21.417C17.3911 21.5958 17.0862 21.7602 16.7734 21.9111C16.7549 21.9201 16.7363 21.9287 16.7178 21.9375C16.5844 22.0009 16.4497 22.062 16.3135 22.1201C16.2473 22.1484 16.1801 22.1742 16.1133 22.2012C16.0292 22.2351 15.9454 22.2699 15.8604 22.3018C15.769 22.336 15.6765 22.3675 15.584 22.3994C15.5158 22.4229 15.4477 22.4466 15.3789 22.4688C15.2951 22.4958 15.2106 22.5208 15.126 22.5459C15.0343 22.573 14.9423 22.5992 14.8496 22.624C14.7782 22.6431 14.7067 22.662 14.6348 22.6797C14.5428 22.7023 14.4503 22.7229 14.3574 22.7432C14.276 22.7609 14.1944 22.778 14.1123 22.7939C14.0173 22.8124 13.922 22.8297 13.8262 22.8457C13.7521 22.8581 13.6781 22.8709 13.6035 22.8818C13.5027 22.8966 13.4015 22.9089 13.2998 22.9209C13.2228 22.93 13.1458 22.9398 13.0684 22.9473C12.9433 22.9593 12.8176 22.9678 12.6914 22.9756C12.6439 22.9785 12.5965 22.983 12.5488 22.9854C12.367 22.9943 12.184 23 12 23C11.8156 23 11.6324 22.9943 11.4502 22.9854C11.4025 22.983 11.3551 22.9785 11.3076 22.9756C11.1814 22.9677 11.0557 22.9593 10.9307 22.9473C10.8532 22.9398 10.7762 22.93 10.6992 22.9209C10.5976 22.9089 10.4963 22.8966 10.3955 22.8818C10.321 22.8709 10.2469 22.8581 10.1729 22.8457C10.077 22.8297 9.98169 22.8124 9.88672 22.7939C9.80465 22.778 9.72301 22.761 9.6416 22.7432C9.54969 22.7231 9.45823 22.7021 9.36719 22.6797C9.292 22.6612 9.21715 22.6421 9.14258 22.6221C9.05523 22.5986 8.96831 22.5744 8.88184 22.5488C8.79359 22.5228 8.70547 22.4969 8.61816 22.4688C8.55 22.4467 8.48262 22.4227 8.41504 22.3994C8.32252 22.3675 8.23005 22.336 8.13867 22.3018C8.0536 22.2699 7.9698 22.2351 7.88574 22.2012C7.81891 22.1742 7.75172 22.1484 7.68555 22.1201C7.5493 22.062 7.41461 22.0009 7.28125 21.9375C7.2627 21.9287 7.24407 21.9201 7.22559 21.9111C6.91627 21.7619 6.61463 21.5994 6.32227 21.4229C6.26023 21.3854 6.1999 21.3453 6.13867 21.3066C6.05935 21.2566 5.98028 21.2063 5.90234 21.1543C5.83884 21.1119 5.77643 21.0681 5.71387 21.0244C5.63226 20.9675 5.55067 20.9106 5.4707 20.8516C5.41502 20.8104 5.36054 20.7677 5.30566 20.7256C5.2308 20.6681 5.15633 20.6102 5.08301 20.5508C5.01723 20.4975 4.95221 20.4434 4.8877 20.3887C4.85899 20.3643 4.82923 20.3411 4.80078 20.3164C4.78784 20.3052 4.77573 20.2932 4.76367 20.2812C2.45806 18.2649 1 15.3035 1 12C1 5.92487 5.92487 1 12 1ZM12 18C9.95276 18 8.0587 18.6479 6.50781 19.749C6.57944 19.7999 6.65056 19.8515 6.72363 19.9004C6.80172 19.9527 6.88124 20.0028 6.96094 20.0527C7.00714 20.0817 7.05288 20.1115 7.09961 20.1396C7.19343 20.1963 7.28886 20.2503 7.38477 20.3037C7.41608 20.3212 7.44698 20.3393 7.47852 20.3564C7.60735 20.4263 7.73778 20.4936 7.87012 20.5576C7.90171 20.5729 7.93404 20.5866 7.96582 20.6016C8.06658 20.6489 8.16786 20.6954 8.27051 20.7393C8.33183 20.7655 8.39408 20.7895 8.45605 20.8145C8.52704 20.843 8.5981 20.8715 8.66992 20.8984C8.73168 20.9216 8.79409 20.943 8.85645 20.9648C8.94037 20.9943 9.02439 21.0237 9.10938 21.0508C9.16858 21.0697 9.22838 21.0867 9.28809 21.1045C9.36945 21.1287 9.45094 21.1527 9.5332 21.1748C9.59224 21.1906 9.65145 21.206 9.71094 21.2207C9.80573 21.2442 9.90117 21.2656 9.99707 21.2861C10.05 21.2975 10.103 21.3089 10.1562 21.3193C10.2485 21.3375 10.3413 21.3537 10.4346 21.3691C10.4924 21.3787 10.5502 21.3889 10.6084 21.3975C10.7062 21.4118 10.8046 21.4232 10.9033 21.4346C10.9576 21.4408 11.0119 21.4478 11.0664 21.4531C11.2001 21.4662 11.3345 21.476 11.4697 21.4834C11.485 21.4842 11.5003 21.4865 11.5156 21.4873C11.6761 21.4954 11.8375 21.5 12 21.5C12.1777 21.5 12.354 21.493 12.5293 21.4834C12.6645 21.476 12.799 21.4661 12.9326 21.4531C12.9872 21.4478 13.0414 21.4408 13.0957 21.4346C13.1944 21.4232 13.2928 21.4118 13.3906 21.3975C13.4488 21.3889 13.5066 21.3787 13.5645 21.3691C13.6577 21.3537 13.7505 21.3375 13.8428 21.3193C13.896 21.3089 13.949 21.2975 14.002 21.2861C14.0979 21.2656 14.1933 21.2441 14.2881 21.2207C14.3476 21.206 14.4068 21.1906 14.4658 21.1748C14.5481 21.1528 14.6296 21.1287 14.7109 21.1045C14.7706 21.0867 14.8304 21.0697 14.8896 21.0508C14.9773 21.0228 15.0639 20.9923 15.1504 20.9619C15.2075 20.9418 15.2647 20.9225 15.3213 20.9014C15.4026 20.871 15.4832 20.8391 15.5635 20.8066C15.6182 20.7845 15.6733 20.7634 15.7275 20.7402C15.8306 20.6962 15.9321 20.6491 16.0332 20.6016C16.065 20.5866 16.0973 20.5729 16.1289 20.5576C16.2613 20.4936 16.3917 20.4263 16.5205 20.3564C16.552 20.3393 16.5829 20.3212 16.6143 20.3037C16.7102 20.2503 16.8056 20.1963 16.8994 20.1396C16.9464 20.1113 16.9926 20.0819 17.0391 20.0527C17.1185 20.0029 17.1975 19.9525 17.2754 19.9004C17.3485 19.8515 17.4196 19.7999 17.4912 19.749C15.9404 18.6482 14.0469 18 12 18ZM12 2.5C6.75329 2.5 2.5 6.75329 2.5 12C2.5 14.6447 3.58129 17.0364 5.3252 18.7588C7.17633 17.3433 9.49 16.5 12 16.5C14.5097 16.5 16.8228 17.3436 18.6738 18.7588C20.418 17.0364 21.5 14.645 21.5 12C21.5 6.75329 17.2467 2.5 12 2.5ZM12 6.5C14.2091 6.5 16 8.29086 16 10.5C16 12.7091 14.2091 14.5 12 14.5C9.79086 14.5 8 12.7091 8 10.5C8 8.29086 9.79086 6.5 12 6.5ZM12 8C10.6193 8 9.5 9.11929 9.5 10.5C9.5 11.8807 10.6193 13 12 13C13.3807 13 14.5 11.8807 14.5 10.5C14.5 9.11929 13.3807 8 12 8Z"
    fill="currentColor"
  />
</svg>

<svg xmlns="http://www.w3.org/2000/svg" width="24" height="24" fill="none" data-fui-icon="true" viewBox="0 0 24 24"><path fill="currentColor" d="M12 1c6.075 0 11 4.925 11 11a10.97 10.97 0 0 1-3.765 8.281q-.017.018-.036.035-.043.036-.088.073a11 11 0 0 1-.417.337l-.166.126a11 11 0 0 1-.667.455l-.175.11q-.443.268-.913.494-.027.015-.055.026-.2.096-.404.183l-.2.081q-.127.052-.254.1-.136.052-.276.098-.102.036-.205.07-.126.04-.253.077a11 11 0 0 1-1.3.3q-.11.019-.223.036-.15.022-.303.039-.115.014-.232.026-.187.017-.377.029l-.142.01a11 11 0 0 1-1.099 0q-.071-.006-.142-.01a11 11 0 0 1-.377-.029q-.117-.012-.232-.026a11 11 0 0 1-.303-.04q-.113-.016-.223-.035a11 11 0 0 1-1.291-.297q-.133-.039-.264-.08-.101-.033-.203-.07-.139-.047-.276-.097-.128-.05-.253-.1l-.2-.082q-.205-.088-.405-.183l-.055-.026q-.465-.224-.904-.488-.092-.058-.183-.116-.12-.074-.237-.153-.095-.064-.188-.13l-.243-.172-.165-.126a11 11 0 0 1-.418-.337q-.044-.036-.087-.073l-.037-.035A10.97 10.97 0 0 1 1 12C1 5.925 5.925 1 12 1m0 17a9.45 9.45 0 0 0-5.492 1.749c.071.05.143.103.216.151q.117.079.237.153l.139.087q.14.084.285.164l.094.052q.193.105.391.202l.096.044q.15.07.305.137.091.038.185.075.106.044.214.084.093.035.186.067.126.045.253.086l.18.054a10 10 0 0 0 .422.116 9 9 0 0 0 .724.148l.173.029q.148.02.295.037l.163.018q.2.02.404.03l.046.004q.24.012.484.013a10 10 0 0 0 .933-.047l.163-.018a10 10 0 0 0 .295-.037l.174-.029q.14-.023.278-.05l.159-.033a9 9 0 0 0 .709-.181q.09-.026.179-.054.13-.043.26-.09.086-.029.171-.06l.242-.094.164-.067q.155-.066.306-.138l.096-.044q.199-.096.391-.202l.094-.052q.145-.08.285-.164l.14-.087q.12-.074.236-.153.11-.073.216-.151A9.45 9.45 0 0 0 12 18m0-15.5a9.5 9.5 0 0 0-6.675 16.259A10.95 10.95 0 0 1 12 16.5c2.51 0 4.823.844 6.674 2.259A9.5 9.5 0 0 0 12 2.5m0 4a4 4 0 1 1 0 8 4 4 0 0 1 0-8M12 8a2.5 2.5 0 1 0 0 5 2.5 2.5 0 0 0 0-5"/></svg>
